dhis-2/dhis-support/dhis-support-system/src/main/resources/SVGs/cervical_cancer_outline.svg

<?xml version="1.0" encoding="UTF-8" standalone="no"?>
<!-- Created with Inkscape (http://www.inkscape.org/) -->
<svg id="svg8" xmlns:rdf="http://www.w3.org/1999/02/22-rdf-syntax-ns#" xmlns="http://www.w3.org/2000/svg" xmlns:osb="http://www.openswatchbook.org/uri/2009/osb" height="48" width="48" version="1.1" xmlns:cc="http://creativecommons.org/ns#" viewBox="0 0 12.7 12.7" xmlns:dc="http://purl.org/dc/elements/1.1/">
 <title id="title4753">UIO-icon</title>
 <metadata id="metadata5">
  <rdf:RDF>
   <cc:Work rdf:about="">
    <dc:format>image/svg+xml</dc:format>
    <dc:type rdf:resource="http://purl.org/dc/dcmitype/StillImage"/>
    <dc:title>UIO-icon</dc:title>
    <dc:creator>
     <cc:Agent>
      <dc:title>Joaquín Urbano</dc:title>
     </cc:Agent>
    </dc:creator>
    <dc:rights>
     <cc:Agent>
      <dc:title>GPL</dc:title>
     </cc:Agent>
    </dc:rights>
   </cc:Work>
  </rdf:RDF>
 </metadata>
 <g id="layer1" transform="translate(0,-284.3)">
  <path id="path4965" d="m24.002 4.0273c-2.4251 0-4.3926 1.9655-4.3926 4.3906s1.9675 4.3906 4.3926 4.3906 4.3906-1.9655 4.3906-4.3906-1.9655-4.3906-4.3906-4.3906zm0 0.69336c2.042 0.00018973 3.6971 1.6552 3.6973 3.6973-0.00021196 2.042-1.6552 3.6971-3.6973 3.6973-2.043 0.001138-3.701-1.6543-3.7012-3.6973 0.00021338-2.043 1.6582-3.6984 3.7012-3.6973zm-0.4375 9.1699-3.998 0.001953v0.009766c-0.7185 0.014211-1.4042 0.40904-1.7422 1.1016l-4.855 9.942c-0.48037 0.98428-0.072221 2.1642 0.91211 2.6445 0.98433 0.48038 2.1622 0.076269 2.6426-0.9082l3.043-6.2363c0.074269 4.2481-0.21549 7.6589-2.7812 12.627h2.7812v8.9219c0 1.0953 0.87932 1.9766 1.9746 1.9766s1.9766-0.88128 1.9766-1.9766v-8.9219h0.95312v8.9199c0 1.0953 0.88323 1.9785 1.9785 1.9785s1.9766-0.88323 1.9766-1.9785v-8.9199h2.7871c-2.296-4.791-2.787-7.921-2.787-12.642l3.0508 6.252c0.48036 0.98433 1.6602 1.3885 2.6445 0.9082 0.98432-0.48038 1.3886-1.6602 0.9082-2.6445l-4.8535-9.9434c-0.33936-0.69542-1.0282-1.0941-1.75-1.1035v-0.009766h-3.998zm4.791 0.72266v0.013672c0.47141 0.012755 0.92053 0.26692 1.1445 0.7207l1.0391 2.1035c0.012329 0.02324 0.032063 0.032943 0.042969 0.056641l3.8379 7.7754c0.32165 0.6516 0.055925 1.4363-0.5957 1.7578-0.65163 0.32149-1.4342 0.056186-1.7559-0.5957l-1.043-2.1074c-0.011854-0.018493-0.03011-0.032943-0.041016-0.056641l-3.2246-6.5332c0.27444 4.9937-0.76958 8.4245 2.3379 14.648l-2.3379-0.019531v9.5371c0 0.36331-0.14572 0.6926-0.38281 0.92969-0.23696 0.23614-0.56539 0.3802-0.92773 0.38086-0.36334 0-0.6926-0.14377-0.92969-0.38086-0.2369-0.2369-0.38477-0.56647-0.38477-0.92969v-9.5371h-2.2812v9.5371c0 0.72667-0.58581 1.3105-1.3125 1.3105s-1.3105-0.58388-1.3105-1.3105v-9.5371h-2.3574c3.0182-6.1789 2.0284-9.6403 2.3574-14.674l-3.248 6.5762c-0.010764 0.02324-0.029209 0.037667-0.041016 0.056641l-1.041 2.1074c-0.32165 0.65184-1.1062 0.91719-1.7578 0.5957-0.651-0.322-0.917-1.106-0.595-1.758l3.8379-7.7754c0.011048-0.02324 0.032736-0.03099 0.044922-0.054688l1.039-2.105c0.24124-0.48882 0.7416-0.75893 1.252-0.73047zm-4.347 10.048c-0.41183-0.003616-0.83392 0.037455-1.2676 0.13281 0.16413 0.66717 0.3644 0.96869 0.62109 1.4102 0.32475-0.098022 0.85885-0.16012 1.1836-0.013672 0.3518-0.50943 0.52568-0.96305 0.67188-1.3965-0.39452-0.081834-0.79715-0.12941-1.209-0.13281zm-1.4121 0.27148-0.25977 0.75c-0.20252 0.58656-0.26239 0.82627-0.2793 1.0977-0.024991 0.40116-0.038954 0.36862 0.42773 1.0566 0.18765 0.27667 0.35219 0.50343 0.36523 0.50391 0.028766 0.00089121 0.89062-1.1841 0.89062-1.2246 0-0.016025-0.17115-0.28583-0.38086-0.60156-0.43346-0.65262-0.67426-1.1154-0.72656-1.3926zm2.7773 0-0.039062 0.20312c-0.049214 0.2487-0.31667 0.76182-0.70312 1.3535-1.4986 2.1074-2.6852 3.7053-4.2852 5.8828 0.32434 0.43928 0.67016 0.91921 1.0312 1.3008 1.581-2.549 3.196-3.999 4.529-6.548 0.058358-0.29904-0.008859-0.64792-0.27148-1.4199zm-0.24609 4.0508-0.42969 0.61133c-0.23738 0.33648-0.44064 0.64043-0.45117 0.67578-0.010574 0.03549 0.17956 0.34358 0.42188 0.68555 0.6845 0.95299 1.2503 1.8049 1.9492 2.7441 0.36772-0.45739 0.62949-0.81946 1.0059-1.3242-0.83157-1.1314-1.6644-2.2613-2.4961-3.3926z" fill-rule="evenodd" transform="matrix(.26458 0 0 .26458 0 284.3)" fill="#333"/>
 </g>
</svg>

<svg width="48" height="48" viewBox="0 0 48 48" fill="none" xmlns="http://www.w3.org/2000/svg">
<path fill-rule="evenodd" clip-rule="evenodd" d="M24.0018 4.02734C21.5767 4.02734 19.6093 5.99282 19.6093 8.41789C19.6093 10.843 21.5767 12.8084 24.0018 12.8084C26.4269 12.8084 28.3924 10.843 28.3924 8.41789C28.3924 5.99282 26.4269 4.02734 24.0018 4.02734ZM24.0018 4.7207C26.0438 4.72089 27.6989 6.37587 27.6991 8.41795C27.6989 10.4599 26.0439 12.115 24.0018 12.1152C21.9588 12.1163 20.3009 10.4609 20.3007 8.41795C20.3009 6.37497 21.9588 4.7196 24.0018 4.7207ZM23.5643 13.8905L19.5664 13.8924V13.9022C18.8479 13.9164 18.1622 14.3112 17.8242 15.0038L12.9693 24.9457C12.4889 25.9299 12.897 27.1098 13.8814 27.5901C14.8657 28.0705 16.0435 27.6664 16.5239 26.6819L19.5669 20.4457C19.6412 24.6938 19.3514 28.1045 16.7857 33.0726H19.5669V41.9943C19.5669 43.0896 20.4462 43.9709 21.5415 43.9709C22.6367 43.9709 23.518 43.0896 23.518 41.9943V33.0726H24.4711V41.9923C24.4711 43.0876 25.3544 43.9708 26.4496 43.9708C27.5449 43.9708 28.4262 43.0876 28.4262 41.9923V33.0726H31.2133C28.9173 28.2816 28.4263 25.1517 28.4263 20.4307L31.4771 26.6826C31.9574 27.667 33.1372 28.0711 34.1215 27.5908C35.1058 27.1105 35.5101 25.9306 35.0297 24.9464L30.1763 15.0031C29.8369 14.3077 29.1481 13.909 28.4263 13.8996V13.8898H24.4283L23.5643 13.8905ZM28.3553 14.6131V14.6268C28.8267 14.6396 29.2758 14.8937 29.4998 15.3475L30.5388 17.451C30.5512 17.4742 30.5709 17.4839 30.5818 17.5076L34.4197 25.2829C34.7413 25.9345 34.4756 26.7192 33.824 27.0407C33.1723 27.3622 32.3898 27.0969 32.0681 26.445L31.0251 24.3376C31.0132 24.3191 30.995 24.3047 30.9841 24.281L27.7595 17.7479C28.034 22.7415 26.99 26.1723 30.0974 32.3957L27.7595 32.3761V41.9131C27.7595 42.2764 27.6138 42.6057 27.3767 42.8428C27.1398 43.0789 26.8113 43.223 26.449 43.2237C26.0857 43.2237 25.7564 43.0799 25.5193 42.8428C25.2824 42.6059 25.1346 42.2763 25.1346 41.9131V32.3761H22.8534V41.9131C22.8534 42.6398 22.2676 43.2236 21.5409 43.2236C20.8142 43.2236 20.2304 42.6397 20.2304 41.9131V32.3761H17.873C20.8912 26.1973 19.9014 22.736 20.2304 17.7023L16.9825 24.2785C16.9717 24.3017 16.9533 24.3161 16.9414 24.3351L15.9005 26.4425C15.5788 27.0943 14.7943 27.3596 14.1427 27.0382C13.4917 26.7162 13.2257 25.9322 13.5477 25.2802L17.3855 17.5049C17.3966 17.4816 17.4183 17.4739 17.4305 17.4502L18.4694 15.3452C18.7107 14.8564 19.211 14.5863 19.7214 14.6148L28.3553 14.6131ZM24.0083 24.661C23.5965 24.6574 23.1744 24.6985 22.7407 24.7938C22.9049 25.461 23.1051 25.7625 23.3618 26.204C23.6866 26.106 24.2207 26.0439 24.5454 26.1903C24.8972 25.6809 25.0711 25.2273 25.2173 24.7938C24.8228 24.712 24.4201 24.6644 24.0083 24.661ZM22.5962 24.9325L22.3365 25.6825C22.134 26.269 22.0741 26.5087 22.0572 26.7802C22.0322 27.1813 22.0182 27.1488 22.4849 27.8367C22.6725 28.1134 22.8371 28.3402 22.8501 28.3406C22.8789 28.3415 23.7407 27.1566 23.7407 27.1161C23.7407 27.1 23.5696 26.8302 23.3599 26.5145C22.9264 25.8619 22.6856 25.3991 22.6333 25.1219L22.5962 24.9325ZM25.3735 24.9325L25.3344 25.1356C25.2852 25.3843 25.0178 25.8974 24.6313 26.4891C23.1327 28.5965 21.9462 30.1943 20.3462 32.3718C20.6705 32.8111 21.0163 33.291 21.3774 33.6726C22.9583 31.1236 24.5733 29.6736 25.9063 27.1247C25.9647 26.8256 25.8975 26.4768 25.6348 25.7048L25.3735 24.9325ZM25.1274 28.9832L24.6977 29.5946C24.4604 29.931 24.2571 30.235 24.2466 30.2703C24.236 30.3058 24.4261 30.6139 24.6684 30.9559C25.3529 31.9088 25.9187 32.7607 26.6176 33.6999C26.9853 33.2425 27.2471 32.8805 27.6235 32.3758C26.7919 31.2444 25.9591 30.1145 25.1274 28.9832Z" fill="#333333"/>
</svg>
